docs/.gitbook/assets/icon-stopwatch-16@light.svg

<svg width="32" height="32" viewBox="0 0 16 16" fill="none" xmlns="http://www.w3.org/2000/svg">
<rect x="0" y="0" width="16" height="16" fill="#fff"/>
<path fill-rule="evenodd" clip-rule="evenodd" d="M3.6089 2.54824C4.80976 1.57979 6.33717 1 8 1C9.66283 1 11.1902 1.57979 12.3911 2.54824L13.0194 1.91994C12.9629 1.67616 13.0297 1.40964 13.2197 1.21967C13.5126 0.926777 13.9874 0.926777 14.2803 1.21967L14.5302 1.46957C14.5303 1.4696 14.5303 1.46964 14.5303 1.46967L14.7803 1.71967C15.0732 2.01256 15.0732 2.48744 14.7803 2.78033C14.5904 2.9703 14.3238 3.03706 14.0801 2.9806L13.4518 3.6089C14.4202 4.80976 15 6.33717 15 8C15 11.866 11.866 15 8 15C4.13401 15 1 11.866 1 8C1 6.33717 1.57979 4.80976 2.54824 3.6089L2.21967 3.28033C1.92678 2.98744 1.92678 2.51256 2.21967 2.21967C2.51256 1.92678 2.98744 1.92678 3.28033 2.21967L3.6089 2.54824ZM10.7803 5.21967C11.0732 5.51256 11.0732 5.98744 10.7803 6.28033L8.28033 8.78033C7.98744 9.07322 7.51256 9.07322 7.21967 8.78033C6.92678 8.48744 6.92678 8.01256 7.21967 7.71967L9.71967 5.21967C10.0126 4.92678 10.4874 4.92678 10.7803 5.21967ZM8 2.5C4.96243 2.5 2.5 4.96243 2.5 8C2.5 11.0376 4.96243 13.5 8 13.5C11.0376 13.5 13.5 11.0376 13.5 8C13.5 4.96243 11.0376 2.5 8 2.5Z" fill="#000"/>
</svg>

<svg xmlns="http://www.w3.org/2000/svg" width="32" height="32" fill="none" viewBox="0 0 16 16"><path fill="#fff" d="M0 0h16v16H0z"/><path fill="#000" fill-rule="evenodd" d="M3.609 2.548A6.97 6.97 0 0 1 8 1c1.663 0 3.19.58 4.391 1.548l.628-.628a.75.75 0 0 1 1.261-.7l.25.25.25.25a.75.75 0 0 1-.7 1.26l-.628.629a7 7 0 1 1-10.904 0L2.22 3.28a.75.75 0 0 1 1.06-1.06zM10.78 5.22a.75.75 0 0 1 0 1.06l-2.5 2.5a.75.75 0 0 1-1.06-1.06l2.5-2.5a.75.75 0 0 1 1.06 0M8 2.5a5.5 5.5 0 1 0 0 11 5.5 5.5 0 0 0 0-11" clip-rule="evenodd"/></svg>
